svg/info.svg

<svg width="280" height="280" viewBox="0 0 280 280" xmlns="http://www.w3.org/2000/svg">
    <g fill="none" fill-rule="evenodd">
        <g fill="#1A1918">
            <path d="M156.234 177.385l-1.264.842c-9.743 6.485-13.014 7.453-14.097 7.453-1.136 0-1.464-.338-1.464-1.504 0-5.2 3.62-20.446 10.76-45.314 2.896-10.072 4.303-16.793 4.303-20.546 0-1.867-.546-3.34-1.624-4.382-1.063-1.025-2.535-1.545-4.375-1.545-5.125 0-15.197 5.25-30.791 16.052l-1.03.714 3.156 5.839 1.267-.803c10.274-6.512 13.167-7.214 13.933-7.214.598 0 1.278 0 1.278 1.845 0 4.342-3.231 17.573-9.603 39.33-3.33 11.45-4.95 18.899-4.95 22.772 0 2.9.724 5.193 2.149 6.818 1.472 1.676 3.271 2.526 5.347 2.526 2.254 0 4.683-.689 7.201-2.036 5.77-2.981 13.17-7.821 21.998-14.386l.981-.73-3.175-5.731zM160.728 92.868c0 5.713-4.631 10.343-10.343 10.343-5.713 0-10.344-4.63-10.344-10.343s4.63-10.344 10.344-10.344c5.712 0 10.343 4.63 10.343 10.344"/>
        </g>
        <path d="M140 238.5c-54.4 0-98.5-44.1-98.5-98.5S85.6 41.5 140 41.5s98.5 44.1 98.5 98.5-44.1 98.5-98.5 98.5zm0-9c49.43 0 89.5-40.07 89.5-89.5S189.43 50.5 140 50.5 50.5 90.57 50.5 140s40.07 89.5 89.5 89.5z" fill="#000" fill-rule="nonzero"/>
    </g>
</svg>

<svg width="280" height="280" viewBox="0 0 280 280" fill="none" xmlns="http://www.w3.org/2000/svg">
<path d="M160.728 92.8675C160.728 98.5806 156.097 103.211 150.385 103.211C144.672 103.211 140.041 98.5806 140.041 92.8675C140.041 87.1545 144.672 82.524 150.385 82.524C156.097 82.524 160.728 87.1545 160.728 92.8675Z" fill="black"/>
<path d="M156.234 177.385L154.97 178.227C145.227 184.712 141.956 185.68 140.873 185.68C139.737 185.68 139.409 185.342 139.409 184.176C139.409 178.975 143.03 163.73 150.17 138.862C153.065 128.79 154.472 122.069 154.472 118.316C154.472 116.449 153.926 114.976 152.848 113.934C151.785 112.909 150.313 112.389 148.473 112.389C143.348 112.389 133.276 117.64 117.681 128.441L116.651 129.155L119.808 134.994L121.075 134.191C131.349 127.679 134.242 126.977 135.008 126.977C135.606 126.977 136.286 126.977 136.286 128.822C136.286 133.164 133.055 146.395 126.683 168.152C123.353 179.602 121.733 187.051 121.733 190.924C121.733 193.823 122.457 196.117 123.882 197.742C125.354 199.418 127.153 200.268 129.229 200.268C131.483 200.268 133.912 199.579 136.43 198.232C142.199 195.251 149.6 190.411 158.428 183.846L159.409 183.116L156.234 177.385Z" fill="black"/>
<path fill-rule="evenodd" clip-rule="evenodd" d="M140 40C84.7715 40 40 84.7715 40 140C40 195.228 84.7715 240 140 240C195.228 240 240 195.228 240 140C240 84.7715 195.228 40 140 40ZM52 140C52 91.3989 91.3989 52 140 52C188.601 52 228 91.3989 228 140C228 188.601 188.601 228 140 228C91.3989 228 52 188.601 52 140Z" fill="black"/>
</svg>
